X: 280
T: Goodmans Fields Hornpipe
M:3/2
L:1/8
C:Ravenscroft?
S: 8: MCJLSH3 http://www.cpartington.plus.com/links/Walsh.abc
Z: Pete Stewart 2004
B: Walsh "Third Book of the most Celebrated jiggs, Lancashire hornpipes, ..."
K:D
B,4DEFE DCB,^A, | B,2GF EDCB,^A,4 | f2bg afge fdec | d2gf edcB^A2F2 |
B,4DEFE DCB,^A, | B,2GF EDCB,^A,4 | gede fdcd ecBc | dcdBf2^A2B4 ||
D4FABc dcdA | Bcdc BAGF E4 | E4GBcd edec | dfgf edcB^A4 |
b2ag fedc Bdfb | a2gf edcB Acea | g2fe dcB^AB2fe | dcBd F2^A2B4 ||

%%sep 1 1 500
%%sep 1 1 500
